X:235
T: Qongren fanshen da yangsan
N: C1720
O: China,Hunan, Shaoshan
S: I, 516]
R: Wuge, Dengge. Geming lishi minge]
M: 2/4
L: 1/16
K: C
e2e2g4 | e2ece2c2 | d3ce4 | cdcAG4 |
A3ce2g2 | c2cAG4 | e2Acc2A2 | E2G4A2 | G8 |
A2c2AcAG | E2G2E4 | A2c2AcAG | E2G2E4 |
e2Acc2A2 | E2G4A2 | G8

@@@ Tune index: 6790
